X:1
T:Title
%%score { ( 1 3 ) | ( 2 4 ) }
L:1/8
Q:1/4=96
M:6/8
K:F
V:1 treble nm="Grand Piano"
V:3 treble 
V:2 bass 
V:4 bass 
V:1
 FAc dcA | c3 c3 | FAc dcA | [CBc]3 [CBc]3 | [Bd]>[Bd][Bd] [Bd][Dce][EBd] | [Bd]3 [Ac]2 A/A/ | %6
w: J.~Lincoln~Hall * * * * *||||||
 Gce d2 d | [Ec]6 |[M:1/8] C/C/ |[M:3/4] F2 EF Ad | c6 | F2 EF Ad | c6 | d2 dc cc | B2 [GB] A2 A | %15
w: |||||||||
 G2 D E2 F | G6 | F2 EF Ad | c6 | F2 EF Ad | c6 | [FBd]2 F [bd']2 F | [FAc]2 F [ac']2 F | %23
w: ||||||||
 [CGB]2 C [gb]2 C | A2 C [fa]2 A | z B d [Ec]2 E |[M:5/8] F-F- F3 |] %27
w: ||||
V:2
 F,A,C DCA, | [F,A,F]3 [F,A,F]3 | F,A,[K:treble]C DCA, | G,3[K:bass] G,3 | %4
 [C,C]>[C,C][C,C] [C,C]C,C, | [F,F]3 [F,F]2 [F,CF]/[F,CF]/ | [G,CE]2 [G,CG] [G,=B,F]2 [G,B,F] | %7
 [C,C]6 |[M:1/8] [F,A,]/[F,A,]/ |[M:3/4] [F,A,C]2 [F,G,C] [F,A,C]2 [F,B,F] | %10
 [F,A,F]2 [F,A,] [F,A,]2 [F,A,] | [F,A,C]2 [F,G,C] [F,A,C]2 [F,B,F] | %12
 [F,A,F]2 [F,A,] [F,A,]2[K:treble] [F,A,F] | [B,F]2 [B,F][A,CF] [A,CF][A,CF] | %14
 [G,CE]2 [E,C] [F,CF]2 [F,CF] | [G,=B,D]2 [G,B,] [G,B,D]2 [G,B,D] | [C,C]3 [C,B,]2 [C,B,]/[C,B,]/ | %17
 [F,A,C]2 [F,G,C] [F,A,C]2 [F,B,F] | [F,A,F]2 [F,A,] [F,A,]2 [F,A,] | %19
 [F,A,C]2 [F,G,C] [F,A,C]2 [F,B,F] | F6 | B,2 B,[K:treble] [B,F]2 B, | F,2 F, [F,F]2 F, | %23
 E,2 E, [E,C]2 E, | [F,CF]2 F, [F,C]2[K:treble] [F,CF] | [B,D]2 [G,B,G][K:bass] [C,B,]2 [C,B,C] | %26
[M:5/8] [F,A,C]-[F,A,C]- [F,A,C]3 |] %27
V:3
 x6 | x6 | x6 | x6 | x6 | x6 | x6 | x6 |[M:1/8] x |[M:3/4] x6 | z2 F F2 C | x6 | z2 F F2 c | x6 | %14
 x6 | x6 | E2 D C2 C/C/ | x6 | z2 F F2 C | x6 | z2 A, A,2 [FAc] | x6 | x6 | x6 | x6 | G2 z2 z2 | %26
[M:5/8] x5 |] %27
V:4
 x6 | x6 | x2[K:treble] x4 | x3[K:bass] x3 | x6 | x6 | x6 | x6 |[M:1/8] x |[M:3/4] x6 | x6 | x6 | %12
 x5[K:treble] x | x6 | x6 | x6 | x6 | x6 | x6 | x6 | [F,A,]2 F, F,2 F, | x3[K:treble] x3 | x6 | %23
 x6 | x5[K:treble] x | x3[K:bass] x3 |[M:5/8] x5 |] %27

